icon/cg/software-upload.svg

<svg viewBox="0 0 24 24" fill="none" xmlns="http://www.w3.org/2000/svg" height="1em" width="1em">
  <path d="M11 14.9861C11 15.5384 11.4477 15.9861 12 15.9861C12.5523 15.9861 13 15.5384 13 14.9861V7.82831L16.2428 11.0711L17.657 9.65685L12.0001 4L6.34326 9.65685L7.75748 11.0711L11 7.82854V14.9861Z" fill="currentColor"/>
  <path d="M4 14H6V18H18V14H20V18C20 19.1046 19.1046 20 18 20H6C4.89543 20 4 19.1046 4 18V14Z" fill="currentColor"/>
</svg>

<svg width="24" height="24" fill="none" xmlns="http://www.w3.org/2000/svg"><path d="M11 14.986a1 1 0 1 0 2 0V7.828l3.243 3.243 1.414-1.414L12 4 6.343 9.657l1.414 1.414L11 7.83v7.157Z" fill="currentColor"/><path d="M4 14h2v4h12v-4h2v4a2 2 0 0 1-2 2H6a2 2 0 0 1-2-2v-4Z" fill="currentColor"/></svg>
